svgs/sharp-light/couch.svg

<svg xmlns="http://www.w3.org/2000/svg" viewBox="0 0 640 512"><!--! Font Awesome Pro 6.6.0 by @fontawesome - https://fontawesome.com License - https://fontawesome.com/license (Commercial License) Copyright 2024 Fonticons, Inc. --><path d="M544 64L96 64l0 128-32 0L64 64l0-32 32 0 448 0 32 0 0 32 0 128-32 0 0-128zM32 448l64 0 0-32 0-96 0-32 0-32-64 0 0 192zm96-192l0 32 384 0 0-32 0-32 32 0 64 0 32 0 0 32 0 192 0 32-32 0-64 0-32 0 0-32-384 0 0 32-32 0-64 0L0 480l0-32L0 256l0-32 32 0 64 0 32 0 0 32zm0 160l384 0 0-96-384 0 0 96zm416 0l0 32 64 0 0-192-64 0 0 32 0 32 0 96z"/></svg>

<svg xmlns="http://www.w3.org/2000/svg" viewBox="0 0 640 512"><!--! Font Awesome Pro 6.4.2 by @fontawesome - https://fontawesome.com License - https://fontawesome.com/license (Commercial License) Copyright 2023 Fonticons, Inc. --><path d="M544 64H96V192H64V64 32H96 544h32V64 192H544V64zM32 448H96V416 320 288 256H32V448zm96-192v32H512V256 224h32 64 32v32V448v32H608 544 512V448H128v32H96 32 0V448 256 224H32 96h32v32zm0 160H512V320H128v96zm416 0v32h64V256H544v32 32 96z"/></svg>
